svgs/light/circle-r.svg

<svg xmlns="http://www.w3.org/2000/svg" viewBox="0 0 512 512"><!-- Font Awesome Pro 6.0.0-alpha2 by @fontawesome - https://fontawesome.com License - https://fontawesome.com/license (Commercial License) --><path d="M368 208C368 163.891 332.125 128 288 128H176C167.156 128 160 135.156 160 144V368C160 376.844 167.156 384 176 384S192 376.844 192 368V288H262.348L339.844 378.406C343.031 382.109 347.5 384 352 384C355.688 384 359.406 382.734 362.406 380.141C369.125 374.391 369.906 364.297 364.156 357.594L303.186 286.465C340.057 279.34 368 246.91 368 208ZM288 256H192V160H288C314.469 160 336 181.531 336 208S314.469 256 288 256ZM256 16C123.451 16 16 123.451 16 256S123.451 496 256 496S496 388.549 496 256S388.549 16 256 16ZM256 464C141.309 464 48 370.691 48 256S141.309 48 256 48S464 141.309 464 256S370.691 464 256 464Z"/></svg>

<svg xmlns="http://www.w3.org/2000/svg" viewBox="0 0 512 512"><!--! Font Awesome Pro 6.3.0 by @fontawesome - https://fontawesome.com License - https://fontawesome.com/license (Commercial License) Copyright 2023 Fonticons, Inc. --><path d="M256 0C114.6 0 0 114.6 0 256s114.6 256 256 256s256-114.6 256-256S397.4 0 256 0zM256 480c-123.5 0-224-100.5-224-224s100.5-224 224-224s224 100.5 224 224S379.5 480 256 480zM368 208C368 163.9 332.1 128 288 128H176C167.2 128 160 135.2 160 144v224C160 376.8 167.2 384 176 384S192 376.8 192 368V288h70.35l77.5 90.41C343 382.1 347.5 384 352 384c3.688 0 7.406-1.266 10.41-3.859c6.719-5.75 7.5-15.84 1.75-22.55l-60.97-71.13C340.1 279.3 368 246.9 368 208zM288 256H192V160h96c26.47 0 48 21.53 48 48S314.5 256 288 256z"/></svg>
